src/rounded/icons/fi-rr-yen.svg

<svg id="Layer_1" height="512" viewBox="0 0 24 24" width="512" xmlns="http://www.w3.org/2000/svg" data-name="Layer 1"><path d="m22.61.208a1 1 0 0 0 -1.4.182l-9.21 11.97-9.208-11.97a1 1 0 0 0 -1.584 1.22l9.53 12.39h-4.738a1 1 0 0 0 0 2h5v2h-5a1 1 0 0 0 0 2h5v3a1 1 0 0 0 2 0v-3h5a1 1 0 0 0 0-2h-5v-2h5a1 1 0 0 0 0-2h-4.738l9.53-12.39a1 1 0 0 0 -.182-1.402z"/></svg>

<svg id="Layer_1" data-name="Layer 1" xmlns="http://www.w3.org/2000/svg" viewBox="0 0 24 24"><path d="M22.61.208a1,1,0,0,0-1.4.182L12,12.36,2.792.39A1,1,0,0,0,1.208,1.61L10.738,14H6a1,1,0,0,0,0,2h5v2H6a1,1,0,0,0,0,2h5v3a1,1,0,0,0,2,0V20h5a1,1,0,0,0,0-2H13V16h5a1,1,0,0,0,0-2H13.262l9.53-12.39A1,1,0,0,0,22.61.208Z"/></svg>
